X: 4
T: The Blackbird
R: hornpipe
M: 4/4
L: 1/8
K: Dmix
|:d-c|B2~B2 cABG|AF~F2 ABcA|d.fe^c d=cAF|GAGF DED-E|FEF-G A2 (3.g.f-e|d.fe^c d=cAF|GBAF ~D2D2|D2:||:d-e|fede fd (3efg|~a3g fgaf|g2{a}g-f gbaf|gagf d^cd-e|fede fd (3efg|~a3g fgaf|gagf d2d^c|defg ~a3g|fgaf g2ge|fde^c d=cAB|cBcd efge|a2~a2 ~A3G|FADA c2e^c|dcAF GBAF|D2D2 D2:||


Tune 1104	Setting 26494

